X:224
T: ERHEBT EUCH VON DER ERDE
N: F0384
O: Europa, Mitteleuropa, Deutschland
R: Vaterlands -, Heimat - Lied, nationalistisch, Krieg
M: 4/4
L: 1/8
K: Eb
B,2 | B,2G,2E2B,2 | C4B,2
B,2 | G2E2B,2EG | F4z2
B,2 | B,2G,2E2B,2 | C4B,2
B,2 | G2E2B,2EG | F4z2
F2 | F3DB,2F2 | G4E2
E2 | F2G2A2G2 | F4z2
F2 | G2F2E2D2 | C2A
AG2F2 | E4D4 | E4z2

